lib/brands/icons/symfony.svg

<svg xmlns="http://www.w3.org/2000/svg" fill="none" aria-hidden="true" viewBox="0 0 48 48"><g id="symfony-Icon"><g id="Group"><path id="Vector" fill="#1A171B" d="M24 42C33.9411 42 42 33.9411 42 24C42 14.0589 33.9411 6 24 6C14.0589 6 6 14.0589 6 24C6 33.9411 14.0589 42 24 42Z"/><path id="Vector_2" fill="white" d="M31.8336 12.6511C30.0076 12.7148 28.4136 13.7211 27.2273 15.1135C25.9136 16.6399 25.0396 18.4504 24.4099 20.2986C23.2833 19.3754 22.4144 18.1802 20.6072 17.659C19.2104 17.258 17.7432 17.4236 16.3941 18.4288C15.7549 18.9063 15.3146 19.6279 15.1053 20.3064C14.563 22.0693 15.6752 23.6383 16.1803 24.2016L17.2846 25.3851C17.5123 25.6172 18.0606 26.2226 17.7925 27.0904C17.5029 28.0342 16.3653 28.6451 15.1983 28.2851C14.6771 28.1261 13.9283 27.7379 14.0961 27.1912C14.1654 26.9675 14.3254 26.8002 14.4113 26.6069C14.4899 26.4408 14.5276 26.3162 14.5514 26.2431C14.7646 25.5469 14.4733 24.6413 13.7278 24.4115C13.0322 24.1983 12.3205 24.3672 12.0447 25.2627C11.7318 26.2802 12.2186 28.1267 14.8267 28.9309C17.8822 29.8696 20.467 28.2059 20.8337 26.0359C21.0646 24.6768 20.451 23.6671 19.3267 22.3683L18.4106 21.3554C17.8557 20.801 17.6651 19.8561 18.2395 19.13C18.7241 18.5175 19.4142 18.256 20.5446 18.5634C22.1945 19.0115 22.93 20.1563 24.1573 21.0795C23.6506 22.7416 23.3193 24.4098 23.0197 25.9058L22.8369 27.0212C21.9597 31.6226 21.2901 34.1492 19.5499 35.5997C19.1993 35.849 18.6981 36.2223 17.9426 36.2483C17.5466 36.2605 17.4187 35.988 17.4131 35.8695C17.4037 35.5914 17.638 35.464 17.7936 35.3389C18.0262 35.212 18.3779 35.0016 18.3541 34.3275C18.3286 33.5311 17.669 32.8405 16.7153 32.872C16.0008 32.8964 14.912 33.5688 14.9529 34.7994C14.9956 36.0705 16.1803 37.0231 17.9664 36.9627C18.9213 36.9301 21.0536 36.5413 23.1549 34.0434C25.6006 31.18 26.2846 27.8974 26.7992 25.4948L27.3735 22.3229C27.6925 22.3611 28.0337 22.3866 28.4048 22.3955C31.4509 22.4597 32.9745 20.8818 32.9973 19.7343C33.0122 19.0397 32.5414 18.3563 31.8824 18.3718C31.4105 18.3851 30.8179 18.6991 30.6755 19.3515C30.5365 19.9918 31.6448 20.5695 30.7785 21.1305C30.1632 21.5287 29.06 21.8095 27.5064 21.5813L27.7889 20.02C28.3654 17.0592 29.0766 13.4171 31.7744 13.3285C31.971 13.3185 32.6904 13.3373 32.707 13.8131C32.712 13.972 32.6727 14.0125 32.4866 14.3763C32.2972 14.6599 32.2258 14.9014 32.2346 15.1789C32.2606 15.9349 32.8355 16.4317 33.6669 16.4018C34.7801 16.3658 35.1002 15.2819 35.0819 14.7253C35.0371 13.4176 33.6585 12.5913 31.8336 12.6511Z"/></g></g></svg>

<svg xmlns="http://www.w3.org/2000/svg" fill="none" aria-hidden="true" viewBox="0 0 48 48"><path fill="#1A171B" d="M24 42c9.941 0 18-8.059 18-18S33.941 6 24 6 6 14.059 6 24s8.059 18 18 18Z"/><path fill="#fff" d="M31.834 12.651c-1.826.064-3.42 1.07-4.607 2.463-1.313 1.526-2.187 3.336-2.817 5.185-1.127-.924-1.996-2.119-3.803-2.64-1.397-.401-2.864-.235-4.213.77-.64.477-1.08 1.199-1.289 1.877-.542 1.763.57 3.332 1.075 3.896l1.105 1.183c.227.232.776.838.508 1.705-.29.944-1.428 1.555-2.595 1.195-.52-.159-1.27-.547-1.102-1.094.07-.223.23-.39.315-.584.079-.166.117-.29.14-.364.214-.696-.078-1.602-.823-1.831-.696-.214-1.408-.045-1.683.85-.313 1.018.174 2.865 2.782 3.669 3.055.939 5.64-.725 6.007-2.895.23-1.36-.383-2.369-1.507-3.668l-.916-1.013c-.555-.554-.746-1.499-.172-2.225.485-.613 1.175-.874 2.306-.567 1.65.449 2.385 1.593 3.612 2.517-.506 1.662-.838 3.33-1.137 4.826l-.183 1.115c-.877 4.602-1.547 7.128-3.287 8.579-.35.249-.852.622-1.607.648-.396.013-.524-.26-.53-.378-.01-.279.225-.406.38-.531.233-.127.585-.337.561-1.011-.025-.797-.685-1.488-1.639-1.456-.714.024-1.803.697-1.762 1.927.043 1.272 1.227 2.224 3.013 2.164.955-.033 3.088-.422 5.189-2.92 2.446-2.863 3.13-6.146 3.644-8.548l.575-3.172c.319.038.66.064 1.03.072 3.047.065 4.57-1.513 4.593-2.66.015-.695-.456-1.379-1.115-1.363-.472.013-1.064.327-1.207.98-.139.64.97 1.218.104 1.779-.616.398-1.719.678-3.273.45l.283-1.561c.576-2.96 1.288-6.603 3.985-6.691.197-.01.916.008.933.484.005.159-.034.2-.22.563-.19.284-.261.525-.252.803.026.756.6 1.253 1.432 1.223 1.113-.036 1.433-1.12 1.415-1.677-.045-1.307-1.424-2.134-3.248-2.074Z"/></svg>
